X: 1
T: Bert Gonnella's Jig
C: by Ron Gonnella
C: from Pinewoods Colln., arr. T. Traub 8-3-2003
R: Jig
M: 6/8
K: G
L: 1/8
B/c/|"G"d2 e dcB|"Am"cBc "D"d2 c|"G"BAG "A7"gab|"D"a3-a2 B/c/|"G"d2 e dcB|"Am"cBc "D"edc|"G"BAG "D"FGA|"G"G3-G2 :|
"G"DB,D GDG|"G"Bcd "C"efg|"G"g2 a "A"bag|"D"a3-a3|"G"DB,D GDG|"G"Bcd "C"efg|"Am"a2 g "D"fga|"G"g3-g3||
"G"DB,D GDG|"G"Bcd "C"efg|"G"g2 a "A"bag|"D"a3-aba|"G"g2 d dcB|"Am"cBc "D"edc|"G"BAG "D"FGA|"G"G3-G2|]
